public/images/mobile/home/net.svg

<svg width="24" height="24" viewBox="0 0 24 24" fill="none" xmlns="http://www.w3.org/2000/svg">
<circle cx="12" cy="12" r="9" stroke="white" stroke-width="2"/>
<path d="M15 12C15 14.6668 14.5658 17.035 13.9 18.6997C13.5659 19.5348 13.1932 20.1435 12.8304 20.527C12.4697 20.9085 12.1887 21 12 21C11.8113 21 11.5303 20.9085 11.1696 20.527C10.8068 20.1435 10.4341 19.5348 10.1 18.6997C9.43419 17.035 9 14.6668 9 12C9 9.33323 9.43419 6.96497 10.1 5.30032C10.4341 4.46523 10.8068 3.85653 11.1696 3.47296C11.5303 3.0915 11.8113 3 12 3C12.1887 3 12.4697 3.0915 12.8304 3.47296C13.1932 3.85653 13.5659 4.46523 13.9 5.30032C14.5658 6.96497 15 9.33323 15 12Z" stroke="white" stroke-width="2"/>
<path d="M4 12H20" stroke="white" stroke-width="2" stroke-linecap="round"/>
</svg>

<svg xmlns="http://www.w3.org/2000/svg" width="24" height="24" fill="none"><circle cx="12" cy="12" r="9" stroke="#fff" stroke-width="2"/><path stroke="#fff" stroke-width="2" d="M15 12c0 2.667-.434 5.035-1.1 6.7-.334.835-.707 1.444-1.07 1.827-.36.381-.641.473-.83.473-.189 0-.47-.091-.83-.473-.363-.384-.736-.992-1.07-1.827C9.434 17.035 9 14.667 9 12s.434-5.035 1.1-6.7c.334-.835.707-1.443 1.07-1.827.36-.381.641-.473.83-.473.189 0 .47.091.83.473.363.384.736.992 1.07 1.827.666 1.665 1.1 4.033 1.1 6.7Z"/><path stroke="#fff" stroke-linecap="round" stroke-width="2" d="M4 12h16"/></svg>
